;FLAVOR:Marlin
;TIME:2333
;Filament used: 1.16889m
;Layer height: 0.2
;MINX:69.418
;MINY:86.358
;MINZ:0.2
;MAXX:150.576
;MAXY:133.634
;MAXZ:13.4
;Generated with Cura_SteamEngine 4.7.1
M140 S60
M105
M190 S60
M104 S200
M105
M109 S200
M82 ;absolute extrusion mode
; Ender 3 Custom Start G-code
G92 E0 ; Reset Extruder
G28 ; Home all axes
G1 Z2.0 F3000 ; Move Z Axis up little to prevent scratching of Heat Bed
G1 X0.1 Y20 Z0.3 F5000.0 ; Move to start position
G1 X0.1 Y200.0 Z0.3 F1500.0 E15 ; Draw the first line
G1 X0.4 Y200.0 Z0.3 F5000.0 ; Move to side a little
G1 X0.4 Y20 Z0.3 F1500.0 E30 ; Draw the second line
G92 E0 ; Reset Extruder
G1 Z2.0 F3000 ; Move Z Axis up little to prevent scratching of Heat Bed
G1 X5 Y20 Z0.3 F5000.0 ; Move over to prevent blob squish
G92 E0
G92 E0
G1 F1500 E-6.5
;LAYER_COUNT:67
;LAYER:0
M107
G0 F6000 X78.105 Y96.323 Z0.2
;TYPE:SKIRT
G1 F1500 E0
G1 F1200 X78.839 Y95.739 E0.0312
G1 X79.621 Y95.221 E0.0624
G1 X80.186 Y94.902 E0.08398
G1 X80.705 Y94.629 E0.10348
G1 X81.033 Y94.463 E0.11571
G1 X81.285 Y94.341 E0.12502
G1 X82.146 Y93.969 E0.15621
G1 X83.035 Y93.671 E0.1874
G1 X83.566 Y93.533 E0.20565
G1 X83.976 Y93.442 E0.21962
G1 X84.218 Y93.393 E0.22783
G1 X84.515 Y93.337 E0.23788
G1 X84.923 Y93.266 E0.25166
G1 X85.243 Y93.215 E0.26243
G1 X85.549 Y93.171 E0.27271
G1 X85.875 Y93.129 E0.28365
G1 X86.254 Y93.086 E0.29633
G1 X86.84 Y93.035 E0.3159
G1 X87.434 Y93 E0.33569
G1 X90.052 Y92.808 E0.423
G1 X92.521 Y92.556 E0.50554
G1 X95.022 Y92.228 E0.58944
G1 X97.512 Y91.832 E0.6733
G1 X99.981 Y91.365 E0.75687
G1 X102.504 Y90.815 E0.84276
G1 X104.878 Y90.225 E0.92412
G1 X107.296 Y89.552 E1.0076
G1 X109.704 Y88.808 E1.09143
G1 X112.14 Y87.979 E1.17701
G1 X113.853 Y87.35 E1.23771
G1 X114.578 Y87.075 E1.2635
G1 X115.468 Y86.781 E1.29467
G1 X116.381 Y86.563 E1.32589
G1 X117.308 Y86.424 E1.35707
G1 X118.224 Y86.365 E1.3876
G1 X118.4 Y86.361 E1.39345
G1 X118.678 Y86.358 E1.4027
G1 X119.185 Y86.36 E1.41956
G1 X120.084 Y86.372 E1.44947
G1 X120.542 Y86.388 E1.46471
G1 X122.103 Y86.474 E1.51671
G1 X122.322 Y86.488 E1.524
G1 X122.689 Y86.517 E1.53625
G1 X123.227 Y86.565 E1.55421
G1 X123.573 Y86.601 E1.56578
G1 X124.604 Y86.726 E1.60033
G1 X124.783 Y86.749 E1.60633
G1 X125.189 Y86.805 E1.61996
G1 X125.381 Y86.833 E1.62641
G1 X125.817 Y86.901 E1.64109
G1 X126.139 Y86.956 E1.65196
G1 X127.265 Y87.166 E1.69005
G1 X127.719 Y87.258 E1.70546
G1 X128.281 Y87.38 E1.72459
G1 X128.67 Y87.472 E1.73788
G1 X129.91 Y87.79 E1.78046
G1 X130.138 Y87.851 E1.78831
G1 X130.491 Y87.951 E1.80051
G1 X131.083 Y88.124 E1.82103
G1 X131.388 Y88.217 E1.83163
G1 X131.706 Y88.32 E1.84275
G1 X132.001 Y88.421 E1.85312
G1 X132.919 Y88.748 E1.88553
G1 X133.569 Y88.99 E1.9086
G1 X133.852 Y89.1 E1.9187
G1 X134.05 Y89.18 E1.9258
G1 X134.268 Y89.271 E1.93366
G1 X134.626 Y89.426 E1.94663
G1 X135.316 Y89.734 E1.97177
G1 X135.907 Y90.006 E1.99341
G1 X136.19 Y90.141 E2.00383
G1 X136.295 Y90.193 E2.00773
G1 X136.564 Y90.331 E2.01779
G1 X137.121 Y90.626 E2.03875
G1 X137.41 Y90.782 E2.04967
G1 X137.591 Y90.882 E2.05655
G1 X138.174 Y91.211 E2.07882
G1 X138.709 Y91.534 E2.0996
G1 X139.577 Y92.092 E2.13392
G1 X139.798 Y92.24 E2.14277
G1 X140.247 Y92.548 E2.16088
G1 X140.803 Y92.955 E2.1838
G1 X141.662 Y93.627 E2.22007
G1 X141.954 Y93.864 E2.23258
G1 X142.42 Y94.255 E2.25281
G1 X142.86 Y94.644 E2.27235
G1 X142.997 Y94.772 E2.27858
G1 X143.208 Y94.975 E2.28832
G1 X143.483 Y95.246 E2.30116
G1 X143.649 Y95.412 E2.30897
G1 X143.805 Y95.571 E2.31638
G1 X144.338 Y96.126 E2.34197
G1 X144.526 Y96.326 E2.3511
G1 X144.674 Y96.488 E2.3584
G1 X145.199 Y97.047 E2.38391
G1 X145.318 Y97.176 E2.38974
G1 X146.175 Y98.118 E2.4321
G1 X146.547 Y98.549 E2.45104
G1 X146.683 Y98.715 E2.45817
G1 X147.024 Y99.154 E2.47666
G1 X147.179 Y99.364 E2.48534
G1 X147.55 Y99.899 E2.507
G1 X147.935 Y100.491 E2.53049
G1 X148.157 Y100.847 E2.54444
G1 X148.203 Y100.924 E2.54742
G1 X148.475 Y101.405 E2.5658
G1 X148.586 Y101.614 E2.57367
G1 X148.795 Y102.029 E2.58913
G1 X148.959 Y102.372 E2.60177
G1 X149.2 Y102.912 E2.62144
G1 X149.291 Y103.132 E2.62936
G1 X149.483 Y103.63 E2.64711
G1 X149.585 Y103.915 E2.65718
G1 X149.796 Y104.569 E2.68003
G1 X149.976 Y105.192 E2.7016
G1 X150.154 Y105.895 E2.72572
G1 X150.222 Y106.206 E2.73631
G1 X150.357 Y106.941 E2.76117
G1 X150.403 Y107.251 E2.77159
G1 X150.482 Y107.927 E2.79423
G1 X150.537 Y108.569 E2.81566
G1 X150.576 Y109.633 E2.85107
G1 X150.569 Y110.25 E2.87159
G1 X150.507 Y111.3 E2.90658
G1 X150.439 Y111.933 E2.92775
G1 X150.27 Y113.004 E2.96381
G1 X150.139 Y113.632 E2.98515
G1 X149.873 Y114.66 E3.02047
G1 X149.666 Y115.324 E3.0436
G1 X149.292 Y116.343 E3.0797
G1 X149.058 Y116.895 E3.09965
G1 X148.891 Y117.268 E3.11324
G1 X148.839 Y117.379 E3.11732
G1 X148.59 Y117.877 E3.13583
G1 X148.481 Y118.082 E3.14356
G1 X148.217 Y118.552 E3.16149
G1 X148.087 Y118.77 E3.16993
G1 X147.738 Y119.317 E3.19151
G1 X147.361 Y119.872 E3.21382
G1 X146.711 Y120.735 E3.24976
G1 X145.798 Y121.83 E3.29718
G1 X145.653 Y122 E3.30461
G1 X145.09 Y122.648 E3.33316
G1 X144.978 Y122.775 E3.33879
G1 X144.288 Y123.545 E3.37318
G1 X144.077 Y123.774 E3.38354
G1 X143.58 Y124.298 E3.40756
G1 X143.156 Y124.721 E3.42748
G1 X143.046 Y124.825 E3.43251
G1 X142.824 Y125.03 E3.44256
G1 X142.453 Y125.361 E3.4591
G1 X142.098 Y125.67 E3.47475
G1 X141.696 Y126.012 E3.49231
G1 X141.156 Y126.443 E3.51529
G1 X140.252 Y127.119 E3.55283
G1 X139.952 Y127.336 E3.56515
G1 X139.441 Y127.692 E3.58586
G1 X138.893 Y128.05 E3.60763
G1 X138.177 Y128.488 E3.63555
G1 X137.755 Y128.737 E3.65185
G1 X137.111 Y129.106 E3.67653
G1 X136.555 Y129.404 E3.69751
G1 X135.869 Y129.746 E3.72301
G1 X135.299 Y130.023 E3.74409
G1 X135.038 Y130.145 E3.75367
G1 X134.886 Y130.214 E3.75922
G1 X134.585 Y130.345 E3.77014
G1 X133.402 Y130.84 E3.81279
G1 X133.078 Y130.97 E3.8244
G1 X132.318 Y131.26 E3.85146
G1 X131.953 Y131.392 E3.86437
G1 X131.634 Y131.501 E3.87558
G1 X131.381 Y131.584 E3.88444
G1 X130.33 Y131.915 E3.92109
G1 X130.099 Y131.985 E3.92911
G1 X129.8 Y132.072 E3.93947
G1 X129.494 Y132.156 E3.95002
G1 X128.444 Y132.428 E3.9861
G1 X127.921 Y132.554 E4.00399
G1 X127.468 Y132.658 E4.01945
G1 X127.101 Y132.736 E4.03193
G1 X125.91 Y132.967 E4.07228
G1 X125.701 Y133.005 E4.07935
G1 X125.103 Y133.109 E4.09954
G1 X124.823 Y133.154 E4.10897
G1 X124.362 Y133.222 E4.12447
G1 X124.095 Y133.258 E4.13343
G1 X123.423 Y133.34 E4.15594
G1 X122.823 Y133.407 E4.17602
G1 X122.09 Y133.478 E4.20052
G1 X121.758 Y133.505 E4.2116
G1 X120.74 Y133.571 E4.24553
G1 X119.862 Y133.614 E4.27476
G1 X119.597 Y133.624 E4.28358
G1 X119.174 Y133.634 E4.29766
G1 X118.236 Y133.616 E4.32886
G1 X117.304 Y133.518 E4.36003
G1 X116.382 Y133.342 E4.39125
G1 X115.52 Y133.1 E4.42103
G1 X114.702 Y132.834 E4.44964
G1 X113.491 Y132.422 E4.49218
G1 X111.076 Y131.676 E4.57625
G1 X108.624 Y130.993 E4.66091
G1 X106.227 Y130.398 E4.74305
G1 X103.778 Y129.863 E4.82643
G1 X101.258 Y129.388 E4.91172
G1 X98.806 Y128.996 E4.99431
G1 X96.282 Y128.666 E5.07897
G1 X93.788 Y128.412 E5.16235
G1 X91.294 Y128.228 E5.24553
G1 X88.742 Y128.112 E5.3305
G1 X88.176 Y128.1 E5.34933
G1 X87.314 Y128.071 E5.37801
G1 X87.025 Y128.057 E5.38764
G1 X86.825 Y128.045 E5.3943
G1 X86.274 Y127.998 E5.41269
G1 X85.804 Y127.946 E5.42842
G1 X85.525 Y127.912 E5.43777
G1 X85.203 Y127.868 E5.44858
G1 X84.857 Y127.815 E5.46022
G1 X84.467 Y127.749 E5.47338
G1 X83.549 Y127.553 E5.5046
G1 X82.652 Y127.28 E5.53578
G1 X82.003 Y127.028 E5.55894
G1 X81.791 Y126.938 E5.5666
G1 X81.35 Y126.739 E5.58269
G1 X80.793 Y126.473 E5.60322
G1 X79.964 Y126.033 E5.63444
G1 X79.177 Y125.524 E5.66561
G1 X78.635 Y125.116 E5.68817
G1 X78.03 Y124.629 E5.71401
G1 X77.319 Y124.039 E5.74473
G1 X76.817 Y123.609 E5.76672
G1 X76.131 Y122.969 E5.79792
G1 X75.695 Y122.499 E5.81925
G1 X75.044 Y121.755 E5.85213
G1 X74.919 Y121.609 E5.85852
G1 X74.31 Y120.888 E5.88991
G1 X73.701 Y120.146 E5.92184
G1 X73.533 Y119.937 E5.93076
G1 X73.459 Y119.842 E5.93476
G1 X73.264 Y119.583 E5.94554
G1 X72.987 Y119.205 E5.96113
G1 X71.871 Y117.649 E6.02482
G1 X71.397 Y116.971 E6.05233
G1 X70.894 Y116.18 E6.08351
G1 X70.459 Y115.349 E6.11471
G1 X70.097 Y114.484 E6.1459
G1 X69.81 Y113.591 E6.17709
G1 X69.601 Y112.677 E6.20828
G1 X69.469 Y111.748 E6.23949
G1 X69.418 Y110.811 E6.2707
G1 X69.446 Y109.874 E6.30188
G1 X69.554 Y108.942 E6.33308
G1 X69.741 Y108.023 E6.36427
G1 X70.006 Y107.124 E6.39545
G1 X70.346 Y106.25 E6.42664
G1 X70.76 Y105.408 E6.45785
G1 X71.053 Y104.903 E6.47726
G1 X71.151 Y104.744 E6.48348
G1 X71.295 Y104.517 E6.49242
G1 X71.515 Y104.18 E6.5058
G1 X72.568 Y102.595 E6.56909
G1 X72.67 Y102.444 E6.57515
G1 X73.09 Y101.834 E6.59979
G1 X73.254 Y101.602 E6.60924
G1 X73.334 Y101.492 E6.61376
G1 X73.508 Y101.26 E6.62341
G1 X73.877 Y100.78 E6.64354
G1 X74.791 Y99.62 E6.69266
G1 X75.194 Y99.121 E6.714
G1 X75.814 Y98.417 E6.7452
G1 X76.289 Y97.951 E6.76733
G1 X76.956 Y97.335 E6.79753
G1 X77.099 Y97.205 E6.80396
G1 X77.486 Y96.86 E6.8212
G1 X78.105 Y96.323 E6.84845
G0 F6000 X78.367 Y96.625
G1 F1200 X79.088 Y96.053 E6.87907
G1 X79.856 Y95.546 E6.90967
G1 X80.372 Y95.256 E6.92936
G1 X80.891 Y94.983 E6.94886
G1 X81.207 Y94.823 E6.96065
G1 X81.459 Y94.701 E6.96996
G1 X82.304 Y94.336 E7.00057
G1 X83.178 Y94.046 E7.0312
G1 X83.657 Y93.922 E7.04766
G1 X83.738 Y93.903 E7.05042
G1 X84.055 Y93.834 E7.06121
G1 X84.297 Y93.785 E7.06943
G1 X84.584 Y93.731 E7.07914
G1 X84.992 Y93.66 E7.09291
G1 X85.3 Y93.611 E7.10329
G1 X85.606 Y93.567 E7.11357
G1 X85.92 Y93.527 E7.1241
G1 X86.299 Y93.484 E7.13678
G1 X86.864 Y93.435 E7.15565
G1 X87.412 Y93.402 E7.17391
G1 X90.085 Y93.206 E7.26305
G1 X92.581 Y92.952 E7.34649
G1 X95.065 Y92.627 E7.42982
G1 X97.577 Y92.226 E7.51442
G1 X100.076 Y91.754 E7.59901
G1 X102.573 Y91.209 E7.68402
G1 X104.976 Y90.612 E7.76637
G1 X107.416 Y89.933 E7.85061
G1 X109.846 Y89.183 E7.93519
G1 X112.281 Y88.354 E8.02075
G1 X113.948 Y87.741 E8.07982
G1 X114.72 Y87.449 E8.10727
G1 X115.594 Y87.161 E8.13788
G1 X116.49 Y86.949 E8.1685
G1 X117.401 Y86.816 E8.19912
G1 X118.233 Y86.765 E8.22685
G1 X118.409 Y86.761 E8.2327
G1 X118.677 Y86.758 E8.24162
G1 X119.179 Y86.76 E8.25832
G1 X120.078 Y86.772 E8.28822
G1 X120.52 Y86.787 E8.30293
G1 X122.081 Y86.873 E8.35493
G1 X122.505 Y86.903 E8.36906
G1 X123.191 Y86.963 E8.39197
G1 X123.525 Y86.998 E8.40314
G1 X124.728 Y87.145 E8.44345
G1 X125.134 Y87.201 E8.45708
G1 X125.755 Y87.297 E8.47798
G1 X126.065 Y87.35 E8.48844
G1 X127.191 Y87.56 E8.52653
G1 X127.381 Y87.597 E8.53297
G1 X127.765 Y87.676 E8.54601
G1 X128.196 Y87.77 E8.56068
G1 X128.57 Y87.859 E8.57347
G1 X129.81 Y88.177 E8.61605
G1 X130.03 Y88.236 E8.62362
G1 X130.379 Y88.335 E8.63569
G1 X130.971 Y88.508 E8.6562
G1 X131.264 Y88.598 E8.6664
G1 X131.582 Y88.701 E8.67752
G1 X131.867 Y88.798 E8.68753
G1 X132.779 Y89.123 E8.71973
G1 X133.429 Y89.365 E8.7428
G1 X133.702 Y89.471 E8.75254
G1 X134.11 Y89.638 E8.7672
G1 X134.463 Y89.791 E8.78
G1 X135.149 Y90.097 E8.80498
G1 X135.74 Y90.369 E8.82662
G1 X136.012 Y90.499 E8.83665
G1 X136.117 Y90.551 E8.84055
G1 X136.377 Y90.684 E8.85026
G1 X136.931 Y90.978 E8.87112
G1 X137.395 Y91.23 E8.88868
G1 X137.978 Y91.559 E8.91095
G1 X138.493 Y91.87 E8.93096
G1 X139.356 Y92.425 E8.96508
G1 X139.572 Y92.57 E8.97374
G1 X140.021 Y92.878 E8.99184
G1 X140.556 Y93.27 E9.0139
G1 X141.415 Y93.942 E9.05018
G1 X141.697 Y94.171 E9.06226
G1 X142.163 Y94.562 E9.08249
G1 X142.587 Y94.937 E9.10132
G1 X142.724 Y95.065 E9.10756
G1 X142.927 Y95.26 E9.11692
G1 X143.202 Y95.531 E9.12976
G1 X143.366 Y95.695 E9.13747
G1 X143.516 Y95.848 E9.1446
G1 X144.049 Y96.403 E9.17019
G1 X144.23 Y96.596 E9.17899
G1 X144.321 Y96.696 E9.18349
G1 X144.908 Y97.321 E9.21201
G1 X145.879 Y98.387 E9.25997
G1 X146.238 Y98.802 E9.27822
G1 X146.374 Y98.968 E9.28536
G1 X146.702 Y99.391 E9.30316
G1 X146.857 Y99.601 E9.31184
G1 X147.215 Y100.117 E9.33273
G1 X147.6 Y100.709 E9.35622
G1 X147.814 Y101.052 E9.36966
G1 X147.86 Y101.129 E9.37265
G1 X148.122 Y101.593 E9.39037
G1 X148.233 Y101.802 E9.39824
G1 X148.434 Y102.202 E9.41313
G1 X148.598 Y102.545 E9.42578
G1 X148.83 Y103.065 E9.44471
G1 X148.921 Y103.285 E9.45263
G1 X149.106 Y103.765 E9.46974
G1 X149.208 Y104.05 E9.47981
G1 X149.411 Y104.68 E9.50182
G1 X149.591 Y105.303 E9.52339
G1 X149.763 Y105.981 E9.54666
G1 X149.831 Y106.292 E9.55725
G1 X149.961 Y107 E9.58119
G1 X150.007 Y107.31 E9.59161
G1 X150.083 Y107.961 E9.61341
G1 X150.138 Y108.603 E9.63484
G1 X150.176 Y109.628 E9.66896
G1 X150.169 Y110.245 E9.68948
G1 X150.109 Y111.257 E9.7232
G1 X150.041 Y111.89 E9.74437
G1 X149.879 Y112.923 E9.77915
G1 X149.748 Y113.551 E9.80049
G1 X149.491 Y114.541 E9.83451
G1 X149.284 Y115.205 E9.85764
G1 X148.923 Y116.187 E9.89244
G1 X148.689 Y116.739 E9.91238
G1 X148.529 Y117.099 E9.92548
G1 X148.477 Y117.21 E9.92956
G1 X148.237 Y117.689 E9.94738
G1 X148.128 Y117.894 E9.9551
G1 X147.873 Y118.347 E9.97239
G1 X147.743 Y118.565 E9.98083
G1 X147.407 Y119.092 E10.00162
G1 X147.03 Y119.647 E10.02394
G1 X146.403 Y120.479 E10.05859
G1 X145.49 Y121.574 E10.10601
G1 X145.351 Y121.738 E10.11316
G1 X144.788 Y122.386 E10.14171
G1 X143.99 Y123.278 E10.18151
G1 X143.787 Y123.499 E10.1915
G1 X143.29 Y124.023 E10.21552
G1 X142.881 Y124.43 E10.23471
G1 X142.771 Y124.534 E10.23974
G1 X142.557 Y124.732 E10.24944
G1 X142.189 Y125.06 E10.26583
G1 X141.839 Y125.366 E10.2813
G1 X141.437 Y125.708 E10.29885
G1 X140.916 Y126.123 E10.32101
G1 X140.012 Y126.799 E10.35855
G1 X139.723 Y127.007 E10.37039
G1 X139.212 Y127.363 E10.39111
G1 X138.684 Y127.708 E10.41208
G1 X137.819 Y128.236 E10.44579
G1 X137.556 Y128.39 E10.45593
G1 X136.912 Y128.759 E10.48061
G1 X136.376 Y129.046 E10.50084
G1 X135.694 Y129.386 E10.52618
G1 X135.124 Y129.663 E10.54726
G1 X134.873 Y129.781 E10.55649
G1 X134.721 Y129.85 E10.56204
G1 X134.431 Y129.976 E10.57255
G1 X133.248 Y130.471 E10.61521
G1 X132.935 Y130.597 E10.62643
G1 X132.175 Y130.887 E10.65348
G1 X131.823 Y131.014 E10.66593
G1 X131.504 Y131.123 E10.67714
G1 X131.261 Y131.202 E10.68564
G1 X130.21 Y131.533 E10.72229
G1 X129.987 Y131.601 E10.73004
G1 X129.688 Y131.688 E10.7404
G1 X129.393 Y131.769 E10.75058
G1 X128.508 Y131.999 E10.78099
G1 X127.967 Y132.132 E10.79952
G1 X127.379 Y132.268 E10.81959
G1 X127.025 Y132.343 E10.83163
G1 X125.834 Y132.574 E10.87198
G1 X125.632 Y132.611 E10.87881
G1 X125.034 Y132.715 E10.899
G1 X124.765 Y132.759 E10.90806
G1 X124.304 Y132.827 E10.92356
G1 X124.046 Y132.861 E10.93222
G1 X123.378 Y132.943 E10.9546
G1 X122.778 Y133.01 E10.97468
G1 X122.052 Y133.08 E10.99894
G1 X121.732 Y133.106 E11.00962
G1 X120.714 Y133.172 E11.04355
G1 X120.534 Y133.182 E11.04954
G1 X119.843 Y133.215 E11.07255
G1 X119.588 Y133.224 E11.08104
G1 X119.165 Y133.234 E11.09511
G1 X118.244 Y133.216 E11.12575
G1 X117.329 Y133.118 E11.15636
G1 X116.425 Y132.941 E11.187
G1 X115.643 Y132.72 E11.21403
G1 X114.83 Y132.455 E11.24247
G1 X113.59 Y132.033 E11.28603
G1 X111.187 Y131.291 E11.36968
G1 X108.756 Y130.614 E11.45361
G1 X106.304 Y130.005 E11.53764
G1 X103.873 Y129.473 E11.62041
G1 X101.324 Y128.993 E11.70668
G1 X98.849 Y128.598 E11.79004
G1 X96.338 Y128.269 E11.87427
G1 X93.825 Y128.013 E11.95829
G1 X91.305 Y127.827 E12.04233
G1 X88.768 Y127.712 E12.1268
G1 X88.19 Y127.7 E12.14603
G1 X87.328 Y127.671 E12.17471
G1 X87.049 Y127.658 E12.184
G1 X86.849 Y127.646 E12.19067
G1 X86.318 Y127.601 E12.20839
G1 X85.848 Y127.549 E12.22412
G1 X85.579 Y127.515 E12.23314
G1 X85.257 Y127.471 E12.24395
G1 X84.923 Y127.42 E12.25518
G1 X84.533 Y127.354 E12.26834
G1 X83.633 Y127.162 E12.29895
G1 X82.753 Y126.891 E12.32957
G1 X82.16 Y126.66 E12.35074
G1 X81.948 Y126.57 E12.3584
G1 X81.522 Y126.378 E12.37394
G1 X80.965 Y126.112 E12.39447
