;FLAVOR:Marlin
;TIME:3471
;Filament used: 1.64469m
;Layer height: 0.2
;MINX:87.044
;MINY:73.568
;MINZ:0.2
;MAXX:132.958
;MAXY:146.75
;MAXZ:22
;Generated with Cura_SteamEngine 4.7.1
M140 S60
M105
M190 S60
M104 S200
M105
M109 S200
M82 ;absolute extrusion mode
; Ender 3 Custom Start G-code
G92 E0 ; Reset Extruder
G28 ; Home all axes
G1 Z2.0 F3000 ; Move Z Axis up little to prevent scratching of Heat Bed
G1 X0.1 Y20 Z0.3 F5000.0 ; Move to start position
G1 X0.1 Y200.0 Z0.3 F1500.0 E15 ; Draw the first line
G1 X0.4 Y200.0 Z0.3 F5000.0 ; Move to side a little
G1 X0.4 Y20 Z0.3 F1500.0 E30 ; Draw the second line
G92 E0 ; Reset Extruder
G1 Z2.0 F3000 ; Move Z Axis up little to prevent scratching of Heat Bed
G1 X5 Y20 Z0.3 F5000.0 ; Move over to prevent blob squish
G92 E0
G92 E0
G1 F1500 E-6.5
;LAYER_COUNT:110
;LAYER:0
M107
G0 F6000 X90.239 Y78.859 Z0.2
;TYPE:SKIRT
G1 F1500 E0
G1 F1200 X91.122 Y77.933 E0.04256
G1 X91.611 Y77.477 E0.0648
G1 X91.913 Y77.205 E0.07831
G1 X92.114 Y77.031 E0.08716
G1 X92.849 Y76.448 E0.11836
G1 X93.631 Y75.93 E0.14956
G1 X94.52 Y75.448 E0.18319
G1 X94.838 Y75.294 E0.19494
G1 X95.213 Y75.121 E0.20868
G1 X95.694 Y74.91 E0.22615
G1 X96.568 Y74.57 E0.25734
G1 X97.468 Y74.306 E0.28854
G1 X98.448 Y74.11 E0.32178
G1 X100.115 Y73.855 E0.37787
G1 X101.256 Y73.691 E0.41621
G1 X102.462 Y73.585 E0.45647
G1 X102.768 Y73.575 E0.46665
G1 X103.126 Y73.569 E0.47856
G1 X116.678 Y73.568 E0.9293
G1 X117.545 Y73.579 E0.95814
G1 X117.858 Y73.588 E0.96856
G1 X118.416 Y73.612 E0.98713
G1 X118.788 Y73.624 E0.99951
G1 X119.027 Y73.634 E1.00747
G1 X119.374 Y73.653 E1.01903
G1 X120.322 Y73.747 E1.05071
G1 X121.046 Y73.85 E1.07504
G1 X121.411 Y73.908 E1.08733
G1 X121.694 Y73.958 E1.09689
G1 X122.951 Y74.257 E1.13986
G1 X123.837 Y74.564 E1.17105
G1 X124.383 Y74.798 E1.19081
G1 X124.642 Y74.917 E1.20029
G1 X125.058 Y75.119 E1.21567
G1 X125.623 Y75.408 E1.23678
G1 X126.439 Y75.87 E1.26796
G1 X127.213 Y76.4 E1.29916
G1 X127.887 Y76.949 E1.32808
G1 X128.188 Y77.22 E1.34155
G1 X128.405 Y77.423 E1.35143
G1 X128.657 Y77.667 E1.3631
G1 X129.017 Y78.026 E1.38001
G1 X129.653 Y78.716 E1.41122
G1 X130.227 Y79.458 E1.44242
G1 X130.893 Y80.522 E1.48417
G1 X131.207 Y81.094 E1.50587
G1 X131.386 Y81.434 E1.51865
G1 X131.503 Y81.666 E1.5273
G1 X131.889 Y82.52 E1.55847
G1 X132.201 Y83.405 E1.58968
G1 X132.518 Y84.733 E1.63509
G1 X132.573 Y85.049 E1.64576
G1 X132.635 Y85.446 E1.65912
G1 X132.71 Y85.995 E1.67755
G1 X132.797 Y86.929 E1.70875
G1 X132.804 Y87.867 E1.73995
G1 X132.732 Y88.802 E1.77114
G1 X132.643 Y89.397 E1.79115
G1 X132.569 Y89.816 E1.8053
G1 X132.511 Y90.12 E1.81559
G1 X132.16 Y91.824 E1.87346
G1 X131.681 Y94.334 E1.95845
G1 X131.272 Y96.856 E2.04343
G1 X130.942 Y99.34 E2.12677
G1 X130.679 Y101.867 E2.21127
G1 X130.49 Y104.357 E2.29433
G1 X130.37 Y106.855 E2.37751
G1 X130.322 Y109.371 E2.46121
G1 X130.346 Y111.93 E2.54632
G1 X130.439 Y114.417 E2.6291
G1 X130.603 Y116.909 E2.71216
G1 X130.842 Y119.447 E2.79695
G1 X131.147 Y121.926 E2.88002
G1 X131.527 Y124.429 E2.96423
G1 X131.982 Y126.952 E3.0495
G1 X132.342 Y128.698 E3.10879
G1 X132.584 Y129.813 E3.14674
G1 X132.662 Y130.208 E3.16013
G1 X132.714 Y130.499 E3.16996
G1 X132.785 Y130.944 E3.18495
G1 X132.864 Y131.522 E3.20435
G1 X132.951 Y132.456 E3.23555
G1 X132.958 Y133.394 E3.26675
G1 X132.886 Y134.329 E3.29794
G1 X132.799 Y134.916 E3.31768
G1 X132.725 Y135.337 E3.33189
G1 X132.664 Y135.657 E3.34273
G1 X132.574 Y136.093 E3.35754
G1 X132.345 Y137.002 E3.38872
G1 X132.04 Y137.889 E3.41991
G1 X131.568 Y138.93 E3.45793
G1 X131.468 Y139.123 E3.46516
G1 X131.326 Y139.387 E3.47513
G1 X131.132 Y139.729 E3.48821
G1 X130.844 Y140.216 E3.50702
G1 X130.333 Y141.002 E3.53821
G1 X129.756 Y141.742 E3.56942
G1 X128.872 Y142.668 E3.612
G1 X128.379 Y143.127 E3.6344
G1 X128.118 Y143.362 E3.64608
G1 X127.921 Y143.534 E3.65478
G1 X127.188 Y144.12 E3.68599
G1 X126.409 Y144.642 E3.71718
G1 X125.605 Y145.087 E3.74774
G1 X125.481 Y145.149 E3.75236
G1 X125.204 Y145.283 E3.76259
G1 X124.987 Y145.384 E3.77055
G1 X124.757 Y145.487 E3.77893
G1 X124.298 Y145.688 E3.7956
G1 X123.424 Y146.027 E3.82678
G1 X122.524 Y146.291 E3.85797
G1 X121.554 Y146.485 E3.89088
G1 X120.798 Y146.601 E3.91631
G1 X120.383 Y146.656 E3.93024
G1 X120.165 Y146.681 E3.93754
G1 X119.23 Y146.748 E3.96871
G1 X118.016 Y146.716 E4.00911
G1 X117.467 Y146.671 E4.02743
G1 X114.789 Y146.489 E4.1167
G1 X112.293 Y146.389 E4.19979
G1 X109.774 Y146.36 E4.28357
G1 X107.283 Y146.402 E4.36644
G1 X104.732 Y146.517 E4.45137
G1 X102.063 Y146.713 E4.54038
G1 X102.063 Y146.711 E4.54045
G1 X101.211 Y146.75 E4.56881
G1 X100.274 Y146.713 E4.6
G1 X99.593 Y146.635 E4.6228
G1 X98.899 Y146.534 E4.64613
G1 X98.496 Y146.468 E4.65971
G1 X98.251 Y146.423 E4.66799
G1 X97.336 Y146.214 E4.69921
G1 X96.443 Y145.929 E4.73039
G1 X95.576 Y145.567 E4.76164
G1 X94.967 Y145.282 E4.784
G1 X94.616 Y145.11 E4.797
G1 X94.366 Y144.982 E4.80634
G1 X93.55 Y144.52 E4.83753
G1 X92.777 Y143.989 E4.86872
G1 X92.071 Y143.413 E4.89903
G1 X91.804 Y143.17 E4.91104
G1 X91.566 Y142.947 E4.92188
G1 X91.344 Y142.733 E4.93214
G1 X91.011 Y142.403 E4.94773
G1 X90.374 Y141.715 E4.97892
G1 X89.797 Y140.976 E5.0101
G1 X89.118 Y139.896 E5.05253
G1 X88.781 Y139.284 E5.07577
G1 X88.588 Y138.917 E5.08956
G1 X88.486 Y138.714 E5.09712
G1 X88.101 Y137.858 E5.12834
G1 X87.79 Y136.974 E5.1595
G1 X87.481 Y135.681 E5.20372
G1 X87.424 Y135.357 E5.21466
G1 X87.359 Y134.939 E5.22873
G1 X87.288 Y134.419 E5.24619
G1 X87.201 Y133.485 E5.27739
G1 X87.211 Y132.199 E5.32016
G1 X87.215 Y132.139 E5.32216
G1 X87.361 Y130.944 E5.3622
G1 X87.427 Y130.573 E5.37474
G1 X87.481 Y130.289 E5.38435
G1 X87.83 Y128.59 E5.44204
G1 X88.311 Y126.06 E5.5277
G1 X88.709 Y123.595 E5.61074
G1 X89.042 Y121.078 E5.69519
G1 X89.3 Y118.595 E5.77822
G1 X89.489 Y116.083 E5.862
G1 X89.608 Y113.551 E5.94631
G1 X89.654 Y111.035 E6.03001
G1 X89.63 Y108.539 E6.11303
G1 X89.535 Y106.028 E6.1966
G1 X89.366 Y103.494 E6.28107
G1 X89.127 Y100.978 E6.36513
G1 X88.825 Y98.525 E6.44734
G1 X88.436 Y95.976 E6.5331
G1 X87.992 Y93.523 E6.61601
G1 X87.625 Y91.747 E6.67633
G1 X87.412 Y90.761 E6.70988
G1 X87.326 Y90.321 E6.72479
G1 X87.267 Y89.981 E6.73627
G1 X87.206 Y89.585 E6.74959
G1 X87.138 Y89.086 E6.76634
G1 X87.051 Y88.152 E6.79754
G1 X87.044 Y87.215 E6.82871
G1 X87.071 Y86.731 E6.84483
G1 X87.076 Y86.668 E6.84693
G1 X87.208 Y85.637 E6.88151
G1 X87.271 Y85.278 E6.89363
G1 X87.333 Y84.95 E6.90473
G1 X87.428 Y84.491 E6.92032
G1 X87.657 Y83.581 E6.95153
G1 X87.963 Y82.694 E6.98274
G1 X88.471 Y81.588 E7.02322
G1 X88.567 Y81.406 E7.03006
G1 X88.716 Y81.132 E7.04044
G1 X88.881 Y80.844 E7.05148
G1 X89.152 Y80.385 E7.06921
G1 X89.663 Y79.599 E7.10039
G1 X90.239 Y78.859 E7.13158
G0 F6000 X90.565 Y79.092
G1 F1200 X91.395 Y78.226 E7.17147
G1 X91.884 Y77.77 E7.19371
G1 X92.175 Y77.508 E7.20673
G1 X92.376 Y77.334 E7.21558
G1 X93.098 Y76.762 E7.24621
G1 X93.866 Y76.255 E7.27682
G1 X94.694 Y75.808 E7.30812
G1 X95.012 Y75.654 E7.31987
G1 X95.374 Y75.487 E7.33313
G1 X95.855 Y75.276 E7.3506
G1 X96.713 Y74.943 E7.38121
G1 X97.597 Y74.686 E7.41183
G1 X98.508 Y74.505 E7.44272
G1 X100.172 Y74.251 E7.49871
G1 X101.313 Y74.087 E7.53705
G1 X102.475 Y73.985 E7.57584
G1 X102.781 Y73.975 E7.58603
G1 X103.126 Y73.969 E7.5975
G1 X116.678 Y73.968 E8.04825
G1 X117.539 Y73.979 E8.07688
G1 X117.841 Y73.988 E8.08693
G1 X118.385 Y74.011 E8.10504
G1 X118.775 Y74.024 E8.11802
G1 X119.006 Y74.034 E8.12571
G1 X119.353 Y74.053 E8.13727
G1 X120.266 Y74.143 E8.16778
G1 X120.99 Y74.246 E8.19211
G1 X121.341 Y74.302 E8.20393
G1 X121.624 Y74.352 E8.21349
G1 X122.836 Y74.64 E8.25492
G1 X123.705 Y74.943 E8.28553
G1 X124.216 Y75.161 E8.30401
G1 X124.475 Y75.28 E8.31349
G1 X124.876 Y75.475 E8.32832
G1 X125.441 Y75.764 E8.34943
G1 X126.242 Y76.218 E8.38005
G1 X127 Y76.741 E8.41068
G1 X127.623 Y77.249 E8.43742
G1 X127.914 Y77.512 E8.45046
G1 X128.131 Y77.715 E8.46035
G1 X128.375 Y77.95 E8.47161
G1 X128.735 Y78.309 E8.48852
G1 X129.358 Y78.987 E8.51915
G1 X129.92 Y79.716 E8.54976
G1 X130.542 Y80.714 E8.58888
G1 X130.856 Y81.286 E8.61058
G1 X131.029 Y81.614 E8.62291
G1 X131.146 Y81.846 E8.63155
G1 X131.524 Y82.685 E8.66216
G1 X131.828 Y83.554 E8.69278
G1 X132.124 Y84.801 E8.73541
G1 X132.179 Y85.117 E8.74608
G1 X132.238 Y85.5 E8.75897
G1 X132.313 Y86.049 E8.7774
G1 X132.398 Y86.966 E8.80803
G1 X132.403 Y87.887 E8.83866
G1 X132.328 Y88.804 E8.86926
G1 X132.249 Y89.328 E8.88689
G1 X132.175 Y89.747 E8.90104
G1 X132.119 Y90.039 E8.91093
G1 X131.785 Y91.662 E8.96604
G1 X131.281 Y94.301 E9.0554
G1 X130.874 Y96.811 E9.13997
G1 X130.546 Y99.278 E9.22275
G1 X130.284 Y101.796 E9.30695
G1 X130.09 Y104.344 E9.39194
G1 X129.97 Y106.864 E9.47585
G1 X129.922 Y109.367 E9.55912
G1 X129.946 Y111.913 E9.6438
G1 X130.041 Y114.457 E9.72847
G1 X130.207 Y116.975 E9.8124
G1 X130.441 Y119.463 E9.89552
G1 X130.753 Y121.998 E9.98047
G1 X131.13 Y124.489 E10.06427
G1 X131.582 Y126.986 E10.14867
G1 X131.965 Y128.845 E10.21179
G1 X132.193 Y129.898 E10.24763
G1 X132.269 Y130.278 E10.26052
G1 X132.321 Y130.569 E10.27035
G1 X132.388 Y130.999 E10.28482
G1 X132.467 Y131.577 E10.30423
G1 X132.552 Y132.493 E10.33483
G1 X132.557 Y133.414 E10.36546
G1 X132.483 Y134.332 E10.39609
G1 X132.405 Y134.847 E10.41341
G1 X132.331 Y135.268 E10.42763
G1 X132.272 Y135.576 E10.43806
G1 X132.182 Y136.012 E10.45287
G1 X131.957 Y136.905 E10.4835
G1 X131.655 Y137.774 E10.5141
G1 X131.213 Y138.746 E10.54961
G1 X131.113 Y138.939 E10.55684
G1 X130.975 Y139.196 E10.56654
G1 X130.788 Y139.526 E10.57916
G1 X130.5 Y140.013 E10.59798
G1 X129.997 Y140.784 E10.6286
G1 X129.43 Y141.509 E10.65921
G1 X128.599 Y142.375 E10.69913
G1 X128.106 Y142.834 E10.72153
G1 X127.855 Y143.061 E10.73279
G1 X127.658 Y143.233 E10.74149
G1 X126.938 Y143.808 E10.77213
G1 X126.172 Y144.318 E10.80274
G1 X125.426 Y144.729 E10.83107
G1 X125.302 Y144.791 E10.83568
G1 X125.035 Y144.92 E10.84554
G1 X124.818 Y145.021 E10.8535
G1 X124.597 Y145.121 E10.86157
G1 X124.138 Y145.322 E10.87824
G1 X123.279 Y145.654 E10.90887
G1 X122.395 Y145.911 E10.93949
G1 X121.494 Y146.089 E10.97003
G1 X120.738 Y146.205 E10.99547
G1 X120.338 Y146.259 E11.0089
G1 X120.12 Y146.284 E11.01619
G1 X119.201 Y146.349 E11.04684
G1 X118.048 Y146.318 E11.0852
G1 X117.451 Y146.269 E11.10512
G1 X114.832 Y146.091 E11.19243
G1 X112.279 Y145.989 E11.27741
G1 X109.771 Y145.96 E11.36084
G1 X107.258 Y146.002 E11.44443
G1 X104.72 Y146.116 E11.52893
G1 X102.113 Y146.309 E11.61588
G1 X101.193 Y146.35 E11.6465
G1 X100.273 Y146.311 E11.67713
G1 X99.65 Y146.239 E11.69799
G1 X98.956 Y146.138 E11.72132
G1 X98.568 Y146.075 E11.73439
G1 X98.323 Y146.03 E11.74268
G1 X97.426 Y145.824 E11.77329
G1 X96.549 Y145.542 E11.80393
G1 X95.745 Y145.205 E11.83292
G1 X95.136 Y144.92 E11.85529
G1 X94.798 Y144.754 E11.86781
G1 X94.548 Y144.626 E11.87715
G1 X93.748 Y144.171 E11.90776
G1 X92.99 Y143.649 E11.93837
G1 X92.337 Y143.114 E11.96645
G1 X92.077 Y142.878 E11.97813
G1 X91.839 Y142.655 E11.98898
G1 X91.626 Y142.449 E11.99883
G1 X91.293 Y142.119 E12.01443
G1 X90.667 Y141.443 E12.04507
G1 X90.103 Y140.716 E12.07567
G1 X89.469 Y139.703 E12.11542
G1 X89.132 Y139.091 E12.13866
G1 X88.945 Y138.737 E12.15197
G1 X88.843 Y138.534 E12.15953
G1 X88.466 Y137.694 E12.19015
G1 X88.163 Y136.825 E12.22076
G1 X87.875 Y135.612 E12.26223
G1 X87.818 Y135.288 E12.27317
G1 X87.755 Y134.885 E12.28674
G1 X87.684 Y134.365 E12.30419
G1 X87.6 Y133.448 E12.33482
G1 X87.61 Y132.226 E12.37546
G1 X87.614 Y132.166 E12.37746
G1 X87.755 Y131.014 E12.41607
G1 X87.821 Y130.643 E12.4286
G1 X87.873 Y130.37 E12.43784
G1 X88.22 Y128.681 E12.49519
G1 X88.706 Y126.127 E12.58166
G1 X89.106 Y123.645 E12.66528
G1 X89.439 Y121.135 E12.74949
G1 X89.699 Y118.63 E12.83326
G1 X89.889 Y116.096 E12.91778
G1 X90.008 Y113.578 E13.00162
G1 X90.054 Y111.038 E13.08611
G1 X90.029 Y108.52 E13.16987
G1 X89.935 Y106.023 E13.25298
G1 X89.765 Y103.466 E13.33821
G1 X89.524 Y100.925 E13.4231
G1 X89.219 Y98.453 E13.50595
G1 X88.838 Y95.95 E13.59015
G1 X88.377 Y93.41 E13.67602
G1 X88.037 Y91.761 E13.73202
G1 X87.803 Y90.677 E13.7689
G1 X87.72 Y90.252 E13.7833
G1 X87.661 Y89.912 E13.79478
G1 X87.602 Y89.531 E13.8076
G1 X87.534 Y89.032 E13.82435
G1 X87.449 Y88.116 E13.85495
G1 X87.47 Y86.762 E13.89999
G1 X87.475 Y86.699 E13.90209
G1 X87.602 Y85.706 E13.93539
G1 X87.665 Y85.347 E13.94751
G1 X87.725 Y85.031 E13.95821
G1 X87.82 Y84.572 E13.9738
G1 X88.046 Y83.679 E14.00444
G1 X88.348 Y82.809 E14.03507
G1 X88.824 Y81.775 E14.07293
G1 X88.92 Y81.593 E14.07977
G1 X89.065 Y81.328 E14.08982
G1 X89.225 Y81.048 E14.10054
G1 X89.496 Y80.589 E14.11827
G1 X89.998 Y79.817 E14.1489
G1 X90.565 Y79.092 E14.17951
G0 F6000 X90.892 Y79.326
G1 F1200 X91.668 Y78.518 E14.21677
G1 X92.157 Y78.062 E14.23901
G1 X92.437 Y77.81 E14.25154
G1 X92.638 Y77.636 E14.26038
G1 X93.346 Y77.076 E14.29041
G1 X94.101 Y76.58 E14.32045
G1 X94.868 Y76.168 E14.34941
G1 X95.186 Y76.014 E14.36116
G1 X95.534 Y75.853 E14.37392
G1 X96.015 Y75.642 E14.39139
G1 X96.858 Y75.316 E14.42145
G1 X97.726 Y75.066 E14.45149
G1 X98.569 Y74.901 E14.48006
G1 X100.229 Y74.647 E14.53592
G1 X101.37 Y74.483 E14.57426
G1 X102.488 Y74.384 E14.61159
G1 X102.794 Y74.374 E14.62177
G1 X103.126 Y74.369 E14.63281
G1 X116.678 Y74.368 E15.08355
G1 X117.533 Y74.379 E15.11199
G1 X117.824 Y74.387 E15.12168
G1 X118.435 Y74.413 E15.14202
G1 X118.984 Y74.433 E15.16029
G1 X119.331 Y74.452 E15.17185
G1 X120.21 Y74.539 E15.20123
G1 X120.934 Y74.642 E15.22555
G1 X121.272 Y74.696 E15.23693
G1 X121.555 Y74.746 E15.24649
G1 X122.721 Y75.023 E15.28635
G1 X123.574 Y75.321 E15.3164
G1 X124.049 Y75.524 E15.33358
G1 X124.308 Y75.643 E15.34307
G1 X124.694 Y75.831 E15.35735
G1 X125.259 Y76.12 E15.37845
G1 X126.044 Y76.566 E15.40848
G1 X126.786 Y77.081 E15.43852
G1 X127.358 Y77.549 E15.4631
G1 X127.641 Y77.804 E15.47577
G1 X127.858 Y78.007 E15.48566
G1 X128.092 Y78.233 E15.49648
G1 X128.452 Y78.592 E15.51339
G1 X129.063 Y79.258 E15.54345
G1 X129.612 Y79.975 E15.57348
G1 X130.191 Y80.907 E15.60998
G1 X130.505 Y81.479 E15.63168
G1 X130.671 Y81.794 E15.64352
G1 X130.788 Y82.026 E15.65216
G1 X131.159 Y82.85 E15.68222
G1 X131.455 Y83.703 E15.71225
G1 X131.73 Y84.87 E15.75213
G1 X131.785 Y85.186 E15.7628
G1 X131.842 Y85.554 E15.77518
G1 X131.917 Y86.103 E15.79361
G1 X132 Y87.003 E15.82367
G1 X132.002 Y87.906 E15.85371
G1 X131.925 Y88.806 E15.88375
G1 X131.856 Y89.258 E15.89896
G1 X131.782 Y89.677 E15.91311
G1 X131.728 Y89.959 E15.92266
G1 X131.379 Y91.656 E15.98028
G1 X130.886 Y94.233 E16.06755
G1 X130.482 Y96.731 E16.15171
G1 X130.146 Y99.255 E16.2364
G1 X129.885 Y101.757 E16.32007
G1 X129.69 Y104.331 E16.40593
G1 X129.57 Y106.837 E16.48937
G1 X129.522 Y109.363 E16.5734
G1 X129.546 Y111.932 E16.65885
G1 X129.641 Y114.463 E16.74309
G1 X129.808 Y117.003 E16.82776
G1 X130.045 Y119.516 E16.91171
G1 X130.354 Y122.036 E16.99615
G1 X130.741 Y124.583 E17.08184
G1 X131.187 Y127.051 E17.16525
G1 X131.552 Y128.824 E17.22546
G1 X131.803 Y129.982 E17.26487
G1 X131.875 Y130.349 E17.27731
G1 X131.927 Y130.64 E17.28714
G1 X131.992 Y131.053 E17.30105
G1 X132.071 Y131.631 E17.32045
G1 X132.154 Y132.53 E17.35048
G1 X132.156 Y133.433 E17.38051
G1 X132.011 Y134.778 E17.42551
G1 X131.937 Y135.199 E17.43972
G1 X131.88 Y135.495 E17.44975
G1 X131.79 Y135.931 E17.46456
G1 X131.569 Y136.807 E17.49461
G1 X131.271 Y137.659 E17.52463
G1 X130.858 Y138.561 E17.55762
G1 X130.661 Y138.937 E17.57174
G1 X130.624 Y139.005 E17.57432
G1 X130.444 Y139.322 E17.58644
G1 X130.156 Y139.809 E17.60526
G1 X129.662 Y140.565 E17.6353
G1 X129.103 Y141.275 E17.66535
G1 X128.326 Y142.082 E17.70261
G1 X127.833 Y142.541 E17.72501
